X: 41271
T: Tuireadh Iain Ruaidh
R: jig
M: 6/8
K: Amajor
|:"A" e2 e A2 A|"A" c>fe "D" f3|"A" e2 e A2 A|"A" cec "E" B3|
"A" e2 e A2 A|"A" c>fe "D" f3|"A" e2 e A2 A|"A" cec "E" B2 "A" A:|
|:"A" e2 A a>fe|"D" f2 f "A" e2 e|"A" e2 A a>fe|"D" fec "E"B3|
"A" e2 e A2 A|"A" c>fe "D" f3|"A" e2 e A2 A|"A" cec "E" B2 "A" A:|

